COLOR/action 16/16/node-transform.svg

<svg height="16" viewBox="0 0 16 16" width="16" xmlns="http://www.w3.org/2000/svg"><g fill="#e95420" transform="matrix(.66005449 0 0 .66005449 .169973 -.011281)"><g transform="matrix(.70710678 .70710678 -.70710678 .70710678 5.509144 -4.822853)"><path d="m13 7v1h-10v-1z"/><path d="m5 5-.002 5a36.975 36.975 0 0 1 -2.323-1.166 44.8 44.8 0 0 1 -2.259-1.334 51.555 51.555 0 0 1 2.26-1.32 42.81 42.81 0 0 1 2.323-1.18zm6 0 .002 5c.76-.348 1.535-.737 2.323-1.166a44.8 44.8 0 0 0 2.259-1.334 51.555 51.555 0 0 0 -2.26-1.32 43.084 43.084 0 0 0 -2.323-1.18z"/></g><g transform="matrix(.70710678 .70710678 -.70710678 .70710678 17.509145 7.177147)"><path d="m13 7v1h-10v-1z"/><path d="m5 5-.002 5a36.975 36.975 0 0 1 -2.323-1.166 44.8 44.8 0 0 1 -2.259-1.334 51.555 51.555 0 0 1 2.26-1.32 42.81 42.81 0 0 1 2.323-1.18zm6 0 .002 5c.76-.348 1.535-.737 2.323-1.166a44.8 44.8 0 0 0 2.259-1.334 51.555 51.555 0 0 0 -2.26-1.32 43.084 43.084 0 0 0 -2.323-1.18z"/></g><g transform="matrix(.70710678 -.70710678 .70710678 .70710678 -5.097457 18.490856)"><path d="m13 7v1h-10v-1z"/><path d="m5 5-.002 5a36.975 36.975 0 0 1 -2.323-1.166 44.8 44.8 0 0 1 -2.259-1.334 51.555 51.555 0 0 1 2.26-1.32 42.81 42.81 0 0 1 2.323-1.18zm6 0 .002 5c.76-.348 1.535-.737 2.323-1.166a44.8 44.8 0 0 0 2.259-1.334 51.555 51.555 0 0 0 -2.26-1.32 43.084 43.084 0 0 0 -2.323-1.18z"/></g><g transform="matrix(.70710678 -.70710678 .70710678 .70710678 6.902543 6.490855)"><path d="m13 7v1h-10v-1z"/><path d="m5 5-.002 5a36.975 36.975 0 0 1 -2.323-1.166 44.8 44.8 0 0 1 -2.259-1.334 51.555 51.555 0 0 1 2.26-1.32 42.81 42.81 0 0 1 2.323-1.18zm6 0 .002 5c.76-.348 1.535-.737 2.323-1.166a44.8 44.8 0 0 0 2.259-1.334 51.555 51.555 0 0 0 -2.26-1.32 43.084 43.084 0 0 0 -2.323-1.18z"/></g></g></svg>

<?xml version="1.0" encoding="UTF-8" standalone="no"?>
<svg
   xmlns:dc="http://purl.org/dc/elements/1.1/"
   xmlns:cc="http://creativecommons.org/ns#"
   xmlns:rdf="http://www.w3.org/1999/02/22-rdf-syntax-ns#"
   xmlns:svg="http://www.w3.org/2000/svg"
   xmlns="http://www.w3.org/2000/svg"
   xmlns:sodipodi="http://sodipodi.sourceforge.net/DTD/sodipodi-0.dtd"
   xmlns:inkscape="http://www.inkscape.org/namespaces/inkscape"
   viewBox="0 0 16 16"
   version="1.1"
   id="svg28"
   sodipodi:docname="node-transform.svg"
   width="16"
   height="16"
   inkscape:version="0.92.4 (5da689c313, 2019-01-14)">
  <metadata
     id="metadata34">
    <rdf:RDF>
      <cc:Work
         rdf:about="">
        <dc:format>image/svg+xml</dc:format>
        <dc:type
           rdf:resource="http://purl.org/dc/dcmitype/StillImage" />
        <dc:title></dc:title>
      </cc:Work>
    </rdf:RDF>
  </metadata>
  <defs
     id="defs32" />
  <sodipodi:namedview
     pagecolor="#ffffff"
     bordercolor="#666666"
     borderopacity="1"
     objecttolerance="10"
     gridtolerance="10"
     guidetolerance="10"
     inkscape:pageopacity="0"
     inkscape:pageshadow="2"
     inkscape:window-width="1920"
     inkscape:window-height="1016"
     id="namedview30"
     showgrid="true"
     inkscape:zoom="52.437501"
     inkscape:cx="4.848033"
     inkscape:cy="5.4487482"
     inkscape:window-x="0"
     inkscape:window-y="27"
     inkscape:window-maximized="1"
     inkscape:current-layer="svg28">
    <inkscape:grid
       type="xygrid"
       id="grid841" />
  </sodipodi:namedview>
  <g
     id="g26"
     style="fill:#e95420"
     transform="matrix(0.66005449,0,0,0.66005449,0.16997303,-0.01128074)">
    <g
       transform="rotate(45,8.5762706,4.2386986)"
       id="g6">
      <path
         d="M 13,7 V 8 H 3 V 7 Z"
         id="path2"
         inkscape:connector-curvature="0" />
      <path
         d="M 5,5 4.998,10 A 36.975,36.975 0 0 1 2.675,8.834 44.8,44.8 0 0 1 0.416,7.5 51.555,51.555 0 0 1 2.676,6.18 42.81,42.81 0 0 1 4.999,5 Z m 6,0 0.002,5 c 0.76,-0.348 1.535,-0.737 2.323,-1.166 A 44.8,44.8 0 0 0 15.584,7.5 51.555,51.555 0 0 0 13.324,6.18 43.084,43.084 0 0 0 11.001,5 Z"
         id="path4"
         inkscape:connector-curvature="0" />
    </g>
    <g
       transform="rotate(45,0.09098974,24.723981)"
       id="g12">
      <path
         d="M 13,7 V 8 H 3 V 7 Z"
         id="path8"
         inkscape:connector-curvature="0" />
      <path
         d="M 5,5 4.998,10 A 36.975,36.975 0 0 1 2.675,8.834 44.8,44.8 0 0 1 0.416,7.5 51.555,51.555 0 0 1 2.676,6.18 42.81,42.81 0 0 1 4.999,5 Z m 6,0 0.002,5 c 0.76,-0.348 1.535,-0.737 2.323,-1.166 A 44.8,44.8 0 0 0 15.584,7.5 51.555,51.555 0 0 0 13.324,6.18 43.084,43.084 0 0 0 11.001,5 Z"
         id="path10"
         inkscape:connector-curvature="0" />
    </g>
    <g
       transform="rotate(-45,19.771709,15.398603)"
       id="g18">
      <path
         d="M 13,7 V 8 H 3 V 7 Z"
         id="path14"
         inkscape:connector-curvature="0" />
      <path
         d="M 5,5 4.998,10 A 36.975,36.975 0 0 1 2.675,8.834 44.8,44.8 0 0 1 0.416,7.5 51.555,51.555 0 0 1 2.676,6.18 42.81,42.81 0 0 1 4.999,5 Z m 6,0 0.002,5 c 0.76,-0.348 1.535,-0.737 2.323,-1.166 A 44.8,44.8 0 0 0 15.584,7.5 51.555,51.555 0 0 0 13.324,6.18 43.084,43.084 0 0 0 11.001,5 Z"
         id="path16"
         inkscape:connector-curvature="0" />
    </g>
    <g
       transform="rotate(-45,11.286427,-5.0866789)"
       id="g24">
      <path
         d="M 13,7 V 8 H 3 V 7 Z"
         id="path20"
         inkscape:connector-curvature="0" />
      <path
         d="M 5,5 4.998,10 A 36.975,36.975 0 0 1 2.675,8.834 44.8,44.8 0 0 1 0.416,7.5 51.555,51.555 0 0 1 2.676,6.18 42.81,42.81 0 0 1 4.999,5 Z m 6,0 0.002,5 c 0.76,-0.348 1.535,-0.737 2.323,-1.166 A 44.8,44.8 0 0 0 15.584,7.5 51.555,51.555 0 0 0 13.324,6.18 43.084,43.084 0 0 0 11.001,5 Z"
         id="path22"
         inkscape:connector-curvature="0" />
    </g>
  </g>
</svg>
